X: 37111
T: Simon And Candy's Halsway
R: jig
M: 6/8
K: Gmajor
W:(''c/D'' means C chord and D Bass on D/G Melodeon)
"G"g3 gfe|"Bm"dgB BAG|"Am"c3 cBA|"D"Bcd ded|
"G"g2 g gfe|"Bm"dgB BAG|"Am"cBA ABc|"D"d2 a2 f2|
"G"g3 gfe|"Bm"dgB BAG|"Am"c3 cBA|"D"Bcd ded|
"G"g2 g gfe|"Bm"dgB BAG|"Am" ABc "D"ded|"G"g3 gfg||
"D" a2 f d2 a|"D" f2d cde|"D" d2 G GAB|"D" c2B cd2|
"D" a2 f d2 g|"c/D" f2d cde|d2 G GAB|c2 d A3|
"D" a2 f d2 a|"D" fdc "C"cde|"Bm" d2 G GAB|"Am" c2B "D"AFD|
"D"A2 F D2 G|"Am"F2A "Bm"GAB|"c/D" c2 A ABc|"D" d2 a2 f2e||

